icons/solid/hand-thumb-down.svg

<svg width="24" height="24" viewBox="0 0 24 24" fill="none" xmlns="http://www.w3.org/2000/svg">
<path d="M15.7303 5.25L16.7647 5.25C17.5455 6.43343 18 7.85114 18 9.375C18 10.8989 17.5455 12.3166 16.7647 13.5L16.6174 13.5C15.8111 13.5 15.0835 13.9458 14.5859 14.5803C13.8127 15.5662 12.8383 16.3866 11.7245 16.9798C11.0023 17.3644 10.3757 17.9357 10.0719 18.6954C9.85923 19.2269 9.75 19.7941 9.75 20.3666L9.75 21C9.75 21.4142 9.41421 21.75 9 21.75C7.75736 21.75 6.75 20.7426 6.75 19.5C6.75 18.3484 7.00956 17.2574 7.47337 16.2823C7.73895 15.724 7.36638 15 6.74809 15L3.62227 15C2.59563 15 1.6767 14.306 1.56801 13.2851C1.52305 12.8629 1.5 12.4341 1.5 12C1.5 9.15238 2.49188 6.53642 4.149 4.47878C4.5366 3.99749 5.13581 3.75 5.75377 3.75L9.76975 3.75C10.2534 3.75 10.7339 3.82798 11.1928 3.98093L14.3072 5.01908C14.7661 5.17203 15.2466 5.25 15.7303 5.25Z" fill="#0F172A"/>
<path d="M21.6685 13.7729C22.2052 12.4111 22.5 10.9275 22.5 9.37501C22.5 8.15493 22.3179 6.97738 21.9794 5.86805C21.7201 5.01802 20.8958 4.5 20.0071 4.5L19.0993 4.5C18.6538 4.5 18.3786 4.99827 18.5758 5.3978C19.1675 6.59709 19.5 7.94722 19.5 9.375C19.5 11.0832 19.0241 12.6802 18.1977 14.0408C17.9527 14.4441 18.226 15 18.6979 15L19.7506 15C20.5827 15 21.3635 14.547 21.6685 13.7729Z" fill="#0F172A"/>
</svg>

<svg xmlns="http://www.w3.org/2000/svg" viewBox="0 0 24 24" fill="currentColor" aria-hidden="true">
  <path d="M15.73 5.25h1.035A7.465 7.465 0 0118 9.375a7.465 7.465 0 01-1.235 4.125h-.148c-.806 0-1.534.446-2.031 1.08a9.04 9.04 0 01-2.861 2.4c-.723.384-1.35.956-1.653 1.715a4.498 4.498 0 00-.322 1.672V21a.75.75 0 01-.75.75 2.25 2.25 0 01-2.25-2.25c0-1.152.26-2.243.723-3.218C7.74 15.724 7.366 15 6.748 15H3.622c-1.026 0-1.945-.694-2.054-1.715A12.134 12.134 0 011.5 12c0-2.848.992-5.464 2.649-7.521.388-.482.987-.729 1.605-.729H9.77a4.5 4.5 0 011.423.23l3.114 1.04a4.5 4.5 0 001.423.23zM21.669 13.773c.536-1.362.831-2.845.831-4.398 0-1.22-.182-2.398-.52-3.507-.26-.85-1.084-1.368-1.973-1.368H19.1c-.445 0-.72.498-.523.898.591 1.2.924 2.55.924 3.977a8.959 8.959 0 01-1.302 4.666c-.245.403.028.959.5.959h1.053c.832 0 1.612-.453 1.918-1.227z"/>
</svg>
